app/dist/common/images/avidxchange-holdings.svg

<svg height="18" viewBox="0 0 18 18" width="18" xmlns="http://www.w3.org/2000/svg" xmlns:xlink="http://www.w3.org/1999/xlink"><linearGradient id="a" gradientUnits="userSpaceOnUse" x1="4" x2="14" y1="8.77" y2="8.72"><stop offset="0" stop-color="#00c5f1"/><stop offset="1" stop-color="#005568"/></linearGradient><linearGradient id="b" gradientUnits="userSpaceOnUse" x1="6" x2="8.64" y1="6.82" y2="6.88"><stop offset="0" stop-color="#fff"/><stop offset="1" stop-color="#d8d7d8"/></linearGradient><path d="m0 0h18v18h-18z" fill="#f0f3fa"/><rect fill="url(#a)" height="10" rx="2.5" width="10" x="4" y="4"/><path d="m7.83 6.02h-1.83l4.15 5.98h1.85z" fill="url(#b)"/><path d="m9.57 8.52-1.28.8 1.86 2.68h1.85z" fill="#80ff00"/><path d="m10.17 6h1.83l-4.15 5.98h-1.85z" fill="#fff"/><path d="m10.17 6h1.83l-2.09 3-.91-1.31z" fill="#80ff00"/><path d="m9 7.68-1.15 1.02.22.32.91-1.33z" fill="#bdbebf"/></svg>

<!-- by TradingView --><svg xmlns="http://www.w3.org/2000/svg" width="18" height="18" viewBox="0 0 18 18"><path fill="#F0F3FA" d="M0 0h18v18H0z"/><rect x="4" y="4" width="10" height="10" rx="2.5" fill="url(#aaoexkbyd)"/><path d="M7.83 6.02H6L10.15 12H12L7.83 6.02z" fill="url(#baoexkbyd)"/><path d="M9.57 8.52l-1.28.8L10.15 12H12L9.57 8.52z" fill="#80FF00"/><path d="M10.17 6H12l-4.15 5.98H6L10.17 6z" fill="#fff"/><path d="M10.17 6H12L9.91 9 9 7.69 10.17 6z" fill="#80FF00"/><path d="M9 7.68L7.85 8.7l.22.32.91-1.33z" fill="#BDBEBF"/><defs><linearGradient id="aaoexkbyd" x1="4" y1="8.77" x2="14" y2="8.72" gradientUnits="userSpaceOnUse"><stop stop-color="#00C5F1"/><stop offset="1" stop-color="#005568"/></linearGradient><linearGradient id="baoexkbyd" x1="6" y1="6.82" x2="8.64" y2="6.88" gradientUnits="userSpaceOnUse"><stop stop-color="#fff"/><stop offset="1" stop-color="#D8D7D8"/></linearGradient></defs></svg>
